frontend/public/assets/material-icons/godot.svg

<svg xmlns="http://www.w3.org/2000/svg" viewBox="0 0 32 32">
  <path d="M26,22l-1,4H19l-1-4H14l-1,4H7L6,22,2,21v3a4,4,0,0,0,4,4H26a4,4,0,0,0,4-4V21Z" style="fill: #42a5f5"/>
  <path d="M31.75,10.74469l-2.5-4.33014a.5.5,0,0,0-.683-.183l-2.7934,1.61279A9.9708,9.9708,0,0,0,24,6.83765V2.5a.5.5,0,0,0-.5-.5h-5a.5.5,0,0,0-.5.5V6H14V2.5a.5.5,0,0,0-.5-.5h-5a.5.5,0,0,0-.5.5V6.83765a9.97449,9.97449,0,0,0-1.725.97027L3.54468,6.23157a.5.5,0,0,0-.683.183l-2.5,4.33014a.5.5,0,0,0,.183.683l2.0556,1.18677A9.95856,9.95856,0,0,0,2,16v3l5,1,1,4h4l1-4h6l1,4h4l1-4,5-1V16a9.96017,9.96017,0,0,0-.58081-3.33221L31.567,11.42773A.50006.50006,0,0,0,31.75,10.74469ZM9,18a3,3,0,1,1,3-3A3,3,0,0,1,9,18Zm9-2H14V14h4Zm5,2a3,3,0,1,1,3-3A3,3,0,0,1,23,18Z" style="fill: #42a5f5"/>
</svg>

<svg xmlns="http://www.w3.org/2000/svg" viewBox="0 0 32 32"><path fill="#42a5f5" d="m26 22-1 4h-6l-1-4h-4l-1 4H7l-1-4-4-1v3a4 4 0 0 0 4 4h20a4 4 0 0 0 4-4v-3Z"/><path fill="#42a5f5" d="m31.75 10.745-2.5-4.33a.5.5 0 0 0-.683-.183l-2.793 1.612A10 10 0 0 0 24 6.838V2.5a.5.5 0 0 0-.5-.5h-5a.5.5 0 0 0-.5.5V6h-4V2.5a.5.5 0 0 0-.5-.5h-5a.5.5 0 0 0-.5.5v4.338a10 10 0 0 0-1.725.97l-2.73-1.576a.5.5 0 0 0-.683.183l-2.5 4.33a.5.5 0 0 0 .183.683L2.6 12.614A10 10 0 0 0 2 16v3l5 1 1 4h4l1-4h6l1 4h4l1-4 5-1v-3a10 10 0 0 0-.58-3.332l2.147-1.24a.5.5 0 0 0 .183-.683M9 18a3 3 0 1 1 3-3 3 3 0 0 1-3 3m9-2h-4v-2h4Zm5 2a3 3 0 1 1 3-3 3 3 0 0 1-3 3"/></svg>
